X:340
T: ALS ICH DICH ZUM ERSTENMAL ERBLICKTE
N: B0401A
O: Europa, Mitteleuropa, Deutschland, Westerwald
R: Liebes - Lied, Liebes - Lust
M: 4/4
L: 1/16
K: Eb
B,3B, | G6G2A2G2A2c2 | B4G4z4
B3e | c6B2c2=B2A2G2 | F8z4
c3B | B6A2F2G2A2c2 | B4G4z4
B3G | G2F2A2F2E4F4 | G8z4
c3B | B6A2F2G2A2c2 | B4G4z4
B3G | G2F2A2F2E4F4 | E8z4

